X:1837
T:F#m slip jig
O:england
M:9/8
L:1/8
C:Cathal McConnell
R:slip jig
D:Joe McHugh and Barry Carroll: The Long Finger. Dervish: Playing with
D:Fire.
K:F#m
~F3 ~F3 ~c3|~F3 ~F3 AFE|~F3 ~F3 ~c3|1 ~e3 ABc BAE:|2 ~e3 ABc BAF||
|:~e3 ABc d2f|~e3 ABc BAF|~e3 ABc dcd|cBA BAF AFE:|


